packages/katcn/src/icons/svg/addFile-solid.svg

<svg width="24" height="25" viewBox="0 0 24 25" fill="none" xmlns="http://www.w3.org/2000/svg">
<path d="M18.8718 7.48809L14.7692 3.38809C14.1538 2.68809 13.2308 2.28809 12.3077 2.28809H6.66667C5.23077 2.28809 4 3.48809 4 4.98809V19.6881C4 21.0881 5.23077 22.2881 6.66667 22.2881H17.3333C18.7692 22.2881 20 21.0881 20 19.5881V11.1881V9.98809C20 8.98809 19.5897 8.08809 18.8718 7.48809Z" fill="black"/>
<path d="M13.8 14.2881H12.8V13.2881C12.8 12.6881 12.4 12.2881 11.8 12.2881C11.2 12.2881 10.8 12.6881 10.8 13.2881V14.2881H9.79999C9.19999 14.2881 8.79999 14.6881 8.79999 15.2881C8.79999 15.8881 9.19999 16.2881 9.79999 16.2881H10.8V17.2881C10.8 17.8881 11.2 18.2881 11.8 18.2881C12.4 18.2881 12.8 17.8881 12.8 17.2881V16.2881H13.8C14.4 16.2881 14.8 15.8881 14.8 15.2881C14.8 14.6881 14.3 14.2881 13.8 14.2881Z" fill="white"/>
</svg>

<svg xmlns="http://www.w3.org/2000/svg" fill="none" viewBox="0 0 24 25"><path fill="#000" d="m18.872 7.488-4.103-4.1a3.3 3.3 0 0 0-2.461-1.1H6.667C5.23 2.288 4 3.488 4 4.988v14.7c0 1.4 1.23 2.6 2.667 2.6h10.666c1.436 0 2.667-1.2 2.667-2.7v-9.6c0-1-.41-1.9-1.128-2.5"/><path fill="#fff" d="M13.8 14.288h-1v-1c0-.6-.4-1-1-1s-1 .4-1 1v1h-1c-.6 0-1 .4-1 1s.4 1 1 1h1v1c0 .6.4 1 1 1s1-.4 1-1v-1h1c.6 0 1-.4 1-1s-.5-1-1-1"/></svg>
